X:4731
T:El Besu (XA 02) (Arrg.)
C:Tradicional
S:Msica Tradicional Asturiana, (C) Tello & Tito. Asturies, 2001.
S:http://pagina.de/MusTradAst <telloytito@asturies.org>
A:Asturies
G:Arrg.
Z:Mtodu de Xuacu Amieva 02
M:2/4
L:1/8
Q:1/4=100
W:Dami un besu, rapazona
W:con tos llabios de coral.
W:Dami un besu, rapazona
W:dmilu que soi formal.
W:
W:Yo-y lu ped,
W:ella mi lu dio,
W:debaxu d'una carquexa.
W:
W:Yo-y lu ped
W:ella mi lu dio
W:yo d'ella nun tengo quexa.
W:
W:Si tu quieres rapazona
W:no faceti unes madrees
W:pa que llegues con to boca
W:a mordemi les oreyes.
W:
W:Ella sonri,
W:muncho me mir,
W:fce-y gracia a la morena.
W:
W:Yo-y lu ped,
W:ella mi lu dio,
W:yo d'ella nun tengo quexa.
K:C
|:"C"G2 G2|"F"F4|"C"E4|
"C"G2 G2|"F"F4|"C"E4|
"C"E2 E2|"Dm"G2 "F"F2|"C"E2 "G"D2|
"C"E3 D|"C"C4-|"C"C4:|
|:"C"C2 D2|"C"E2 "G"D2|"C"C4|
"C"C2 "G"D2|"C"E2 "G"D2|"C"C4|
"C"E2 E2|"Dm"G2 "F"F2|"C"E2 "G"D2|
"C"E3 D|"C"C4-|"C"C4:|
